src/imgweb/patita_der.svg

<svg clip-rule="evenodd" fill-rule="evenodd" stroke-linecap="round" stroke-linejoin="round" viewBox="0 0 966.822 975.733" xmlns="http://www.w3.org/2000/svg"><g fill="#272330"><path d="m717.726 696.622c9.118 15.03 52.293 8.392 68.952 8.392 71.14 0 161.758-104.311 130.515-180.756-4.157-10.171-15.334-26.018-25.857-29.696-23.54-8.228-84.373-7.068-103.427 12.911-37.118 38.922-93.975 106.783-78.801 170.428 1.741 7.302 5.155 13.012 8.618 18.721z"/><path d="m677.829 412.476c15.118-2.351 28.614-8.611 42.479-14.202 41.463-16.723 75.974-32.868 98.502-76.176 19.196-36.904 5.554-104.788-29.551-125.239-26.264-15.3-50.678 5.587-70.182 21.949-40.126 33.661-74.677 82.953-84.958 136.859-5.654 29.644 12.659 61.637 43.71 56.809z"/><path d="m525.49 36.9268c1.841.9657 12.776 2.9793 16.006 4.5189 7.987 3.8069 7.913 3.8527 14.775 10.329 17.726 16.7289 24.626 38.6203 24.626 63.2643 0 22.147 1.718 45.487-1.232 67.139-6.247 45.86-48.176 121.552-100.964 112.327-27.353-4.781-37.484-34.185-44.326-58.101-13.6-47.539-26.122-115.921 12.313-156.2247 19.076-20.0036 45.82-60.5447 78.802-43.2525z"/><path d="m265.156 326.709c10.54.244 23.478-51.51 26.472-61.974 14.858-51.932-16.629-164.061-88.652-131.694-52.22 23.468-56.691 149.266-25.856 192.377 11.389 15.924 40.643 32.275 60.332 27.113 5.76-1.509 17.052-6.196 20.932-11.62 2.29-3.201 6.509-14.208 6.772-14.202z"/><path d="m568.042 453.725c1.493-5.323 29.296 39.332 30.78 41.826 17.923 30.112 29.566 64.973 36.382 99.936 19.871 101.938 28.031 270.312-66.143 332.324-32.54 21.427-108.267 37.397-143.1 16.494-14.928-8.958-18.07-23.439-25.266-38.517-16.754-35.108-22.952-75.566-33.917-113.32-7.908-27.228-10.173-55.914-32.761-73.802-18.856-14.933-45.187-14.343-67.237-15.174-4.501-.169-16.446 5.684-19.186 4.108-8.935-5.14-18.762-1.644-29.623-2.308-40.415-2.474-85.975-6.008-106.623-49.274-3.293-6.901-9.016-12.397-11.094-20.155-5.0921-19.007-3.0454-39.029-2.8879-58.605.852-105.931 79.5929-148.45 162.4339-163.526 22.592-4.111 43.196-18.642 66.346-20.696 19.779-1.755 40.398-3.041 59.809-6.573 26.555-4.832 54.109 5.648 79.776 9.504 7.106 1.068 14.015 6.8 21.157 7.237 10.549.645 25.761 5.117 34.856 11.211 10.731 7.19 23.844 12.184 33.119 21.998 3.43 3.629 7.092 6.179 9.934 10.511 1.078 1.643 3.219 6.893 3.245 6.801z"/></g></svg>

<?xml version="1.0" encoding="UTF-8" standalone="no"?> <!-- Created with Vectornator for iOS (http://vectornator.io/) --><!DOCTYPE svg PUBLIC "-//W3C//DTD SVG 1.1//EN" "http://www.w3.org/Graphics/SVG/1.1/DTD/svg11.dtd">
<svg height="100%" style="fill-rule:evenodd;clip-rule:evenodd;stroke-linecap:round;stroke-linejoin:round;" xmlns:xlink="http://www.w3.org/1999/xlink" xmlns="http://www.w3.org/2000/svg" xml:space="preserve" width="100%" xmlns:vectornator="http://vectornator.io" version="1.1" viewBox="0 0 966.822 975.733">
<metadata>
<vectornator:setting key="DimensionsVisible" value="1"/>
<vectornator:setting key="PencilOnly" value="0"/>
<vectornator:setting key="SnapToPoints" value="0"/>
<vectornator:setting key="OutlineMode" value="0"/>
<vectornator:setting key="CMYKEnabledKey" value="0"/>
<vectornator:setting key="RulersVisible" value="1"/>
<vectornator:setting key="SnapToEdges" value="0"/>
<vectornator:setting key="GuidesVisible" value="1"/>
<vectornator:setting key="DisplayWhiteBackground" value="0"/>
<vectornator:setting key="doHistoryDisabled" value="0"/>
<vectornator:setting key="SnapToGuides" value="1"/>
<vectornator:setting key="TimeLapseWatermarkDisabled" value="0"/>
<vectornator:setting key="Units" value="Pixels"/>
<vectornator:setting key="DynamicGuides" value="0"/>
<vectornator:setting key="IsolateActiveLayer" value="0"/>
<vectornator:setting key="SnapToGrid" value="0"/>
</metadata>
<defs/>
<g id="Capa 1" vectornator:layerName="Capa 1">
<path d="M717.726+696.622C726.844+711.652+770.019+705.014+786.678+705.014C857.818+705.014+948.436+600.703+917.193+524.258C913.036+514.087+901.859+498.24+891.336+494.562C867.796+486.334+806.963+487.494+787.909+507.473C750.791+546.395+693.934+614.256+709.108+677.901C710.849+685.203+714.263+690.913+717.726+696.622Z" opacity="1" fill="#272330"/>
<path d="M677.829+412.476C692.947+410.125+706.443+403.865+720.308+398.274C761.771+381.551+796.282+365.406+818.81+322.098C838.006+285.194+824.364+217.31+789.259+196.859C762.995+181.559+738.581+202.446+719.077+218.808C678.951+252.469+644.4+301.761+634.119+355.667C628.465+385.311+646.778+417.304+677.829+412.476Z" opacity="1" fill="#272330"/>
<path d="M525.49+36.9268C527.331+37.8925+538.266+39.9061+541.496+41.4457C549.483+45.2526+549.409+45.2984+556.271+51.7747C573.997+68.5036+580.897+90.395+580.897+115.039C580.897+137.186+582.615+160.526+579.665+182.178C573.418+228.038+531.489+303.73+478.701+294.505C451.348+289.724+441.217+260.32+434.375+236.404C420.775+188.865+408.253+120.483+446.688+80.1793C465.764+60.1757+492.508+19.6346+525.49+36.9268Z" opacity="1" fill="#272330"/>
<path d="M265.156+326.709C275.696+326.953+288.634+275.199+291.628+264.735C306.486+212.803+274.999+100.674+202.976+133.041C150.756+156.509+146.285+282.307+177.12+325.418C188.509+341.342+217.763+357.693+237.452+352.531C243.212+351.022+254.504+346.335+258.384+340.911C260.674+337.71+264.893+326.703+265.156+326.709Z" opacity="1" fill="#272330"/>
<path d="M568.042+453.725C569.535+448.402+597.338+493.057+598.822+495.551C616.745+525.663+628.388+560.524+635.204+595.487C655.075+697.425+663.235+865.799+569.061+927.811C536.521+949.238+460.794+965.208+425.961+944.305C411.033+935.347+407.891+920.866+400.695+905.788C383.941+870.68+377.743+830.222+366.778+792.468C358.87+765.24+356.605+736.554+334.017+718.666C315.161+703.733+288.83+704.323+266.78+703.492C262.279+703.323+250.334+709.176+247.594+707.6C238.659+702.46+228.832+705.956+217.971+705.292C177.556+702.818+131.996+699.284+111.348+656.018C108.055+649.117+102.332+643.621+100.254+635.863C95.1619+616.856+97.2086+596.834+97.3661+577.258C98.2181+471.327+176.959+428.808+259.8+413.732C282.392+409.621+302.996+395.09+326.146+393.036C345.925+391.281+366.544+389.995+385.955+386.463C412.51+381.631+440.064+392.111+465.731+395.967C472.837+397.035+479.746+402.767+486.888+403.204C497.437+403.849+512.649+408.321+521.744+414.415C532.475+421.605+545.588+426.599+554.863+436.413C558.293+440.042+561.955+442.592+564.797+446.924C565.875+448.567+568.016+453.817+568.042+453.725Z" opacity="1" fill="#272330"/>
</g>
</svg>
